X:1
L:1/8
M:6/8
K:D
 BcB def | ece ABc | d/e/fd ecA | BFD B,DF | BcB def | ece ABc | d/e/fd ecA | BcB B3 || fgf fed | 
 efe e2 e | f^g^a bfa | b3 b2 a/b/ | c'a/b/c' af/g/a | ec/d/e ABc | de/f/d ecA | BcB B3 |]
